!!!OTL: Kein Alter von Liebe frei (279), S. 591
!!!id: T0469
**kern
*clefG2
*k[]
*C:
{8cc
=1
4cc
8g
8g
8g
8ee
=2
8ee
8ee
8cc
4cc}
=3
{8ee
=4
4ee
8dd
4cc
8a
=5
4g}
4.r
=6
{8cc
=7
4cc
4g
8g
8ee
=8
4ee
8cc
4cc}
=9
{8ee
=10
4ee
8dd
4cc
8a
=11
4g}
4.r
=12
{8cc
=13
8cc
8b
8a
4g
8cc
=14
8cc
8b
8a
4g}
=15
{8cc
=16
8cc
8b
8cc
8dd
8cc
8cc
=17
8cc
8b
8a
4g}
==
*-
!!!minrhy: 8
!!!meters: 6/8 ]  ZZ[6
!!!cut: Kein Alter von Liebe frei (279), S. 591
!!!reg: Luxemburg
!!!trd: Singendes Volk, Esch-Alzette, 1937 posth.
!!!rhy1: X  X_XXXX  XXXX_
!!!rhy2: X  X_XX_X  X_0_.
!!!key: T0469  08  C 6/8 ]  ZZ[6
!!!mod: SECHSTONSKALA DUR ?]  AMBITUS[6
!!!kad: +15+1555
!!!akz: +15+3+1_+3+15_+15+3+1_+3+15_+15+15_+1+2+15_
!!!fot: 'a__b__av_b__c__d__
!!!for: 'a__b__c__b__d__e__
!!!fok: 'S__\__S__\__\__\__
!! PHRAS[AUFTAKTIG]
!!!fkt: ???
!!!bem: Beidweiler, hhh Johann Didier, 4.1.1934
!! THILL; Mathias
!! PR[46] 2K[3] 2G[10] 3K[0] 3G[3] 4A[5] 4Ü[0] 5A[0] 6K[0] 6G[0]
!! 7K[0] 7G[0] 8A[0] MEHR[0] SI[21] ABS[39] SR[13] SP[8]
!! ST[10] 2k[5] 2g[23] 3k[3] 3g[0] 4d[0] 4ü[0] 5d[3] 6k[0] 6g[0]
!! 7k[0] 7g[0] 8d[0] mehr[0] si[33] dm[-12] sr[28] sp[5]
!! 1F[5] 2F[93] 3F[3] 4F[0] LF[0] 2P[0] 3P[0] 4P[0] TRI[0] DF[3] AB[40]
!! TF[0] U3K[0] U3[0] U4[0] U4Ü[0] U5[0] U6K[0] U6[0] U7K[0] U7[0]
!! N1[10] N2K[0] N2[20] N3K[0] N3[23] N4[8] N4Ü[0] N5[33] N6K[0] N6[8]
!!!n7k: 0] N7[0] O1[0] O2K[0] O2[0] O3K[0] O3[0] HÖ[0
